image/ection-twacs-item-img2.svg

<svg fill="none" height="32" viewBox="0 0 32 32" width="32" xmlns="http://www.w3.org/2000/svg"><path clip-rule="evenodd" d="m20.5096.326951c.4359.435934.4359 1.142719 0 1.578659-.6189.61888-1.1751 1.27698-1.6668 1.96385l1.7961 1.79615c.436.43594.436 1.14273 0 1.57866-.4359.43593-1.1427.43593-1.5786 0l-1.4107-1.41071c-.3127.61616-.5782 1.24593-.7954 1.88303l7.2606 7.26061c.0548.0548.1027.1139.1437.1762.6071-.2057 1.2075-.4553 1.796-.7478l-4.4768-4.47674c-.4359-.43593-.4359-1.14272 0-1.57865.436-.43594 1.1428-.43594 1.5787 0l4.8757 4.87569c.7222-.5085 1.4134-1.088 2.0616-1.7362.436-.4359 1.1427-.4359 1.5787 0 .4359.436.4359 1.1428 0 1.5787-3.9035 3.9035-9.323 5.7356-14.224 4.7823 1.1161 4.725-.5949 10.0365-4.3807 13.8224-.4359.4359-1.1427.4359-1.5786 0-.436-.436-.436-1.1428 0-1.5787.65-.6501 1.2255-1.3465 1.7239-2.0753l-2.0146-2.0147c-.436-.4359-.436-1.1427 0-1.5786.4359-.4359 1.1427-.4359 1.5786 0l1.5813 1.5813c.2777-.5992.508-1.2103.6897-1.8268-.0246-.0207-.0484-.0425-.0715-.0656l-7.16198-7.162c-.65444.1932-1.30279.441-1.9373.7422l4.21378 4.2138c.4359.4359.4359 1.1427 0 1.5787-.43595.4359-1.14274.4359-1.57867 0l-4.63206-4.6321c-.69255.4823-1.35506 1.0347-1.97533 1.655-.43594.4359-1.142727.4359-1.578661 0-.435934-.436-.435934-1.1428 0-1.5787 3.785811-3.7858 9.097351-5.4968 13.822321-4.3806-.9533-4.90112.8788-10.32054 4.7823-14.224049.436-.435935 1.1428-.435935 1.5787 0zm1.2213 15.423649-5.4822-5.4822c-.2354 1.7405-.1084 3.4741.404 5.0782 1.6042.5124 3.3378.6395 5.0782.404zm-6.7283 1.6692c.4445 1.2913.6147 2.6795.5244 4.088l-5.0355-5.0354c1.4086-.0904 2.7968.0799 4.088.5244l.3147.1083z" fill="#4b4b4b" fill-rule="evenodd"/></svg>

<svg width="32" height="32" viewBox="0 0 32 32" fill="none" xmlns="http://www.w3.org/2000/svg">
<path fill-rule="evenodd" clip-rule="evenodd" d="M20.5096 0.326951C20.9455 0.762885 20.9455 1.46967 20.5096 1.90561C19.8907 2.52449 19.3345 3.18259 18.8428 3.86946L20.6389 5.66561C21.0749 6.10155 21.0749 6.80834 20.6389 7.24427C20.203 7.6802 19.4962 7.6802 19.0603 7.24427L17.6496 5.83356C17.3369 6.44972 17.0714 7.07949 16.8542 7.71659L24.1148 14.9772C24.1696 15.032 24.2175 15.0911 24.2585 15.1534C24.8656 14.9477 25.466 14.6981 26.0545 14.4056L21.5777 9.92886C21.1418 9.49293 21.1418 8.78614 21.5777 8.35021C22.0137 7.91427 22.7205 7.91427 23.1564 8.35021L28.0321 13.2259C28.7543 12.7174 29.4455 12.1379 30.0937 11.4897C30.5297 11.0538 31.2364 11.0538 31.6724 11.4897C32.1083 11.9257 32.1083 12.6325 31.6724 13.0684C27.7689 16.9719 22.3494 18.804 17.4484 17.8507C18.5645 22.5757 16.8535 27.8872 13.0677 31.6731C12.6318 32.109 11.925 32.109 11.4891 31.6731C11.0531 31.2371 11.0531 30.5303 11.4891 30.0944C12.1391 29.4443 12.7146 28.7479 13.213 28.0191L11.1984 26.0044C10.7624 25.5685 10.7624 24.8617 11.1984 24.4258C11.6343 23.9899 12.3411 23.9899 12.777 24.4258L14.3583 26.0071C14.636 25.4079 14.8663 24.7968 15.048 24.1803C15.0234 24.1596 14.9996 24.1378 14.9765 24.1147L7.81452 16.9527C7.16008 17.1459 6.51173 17.3937 5.87722 17.6949L10.091 21.9087C10.5269 22.3446 10.5269 23.0514 10.091 23.4874C9.65505 23.9233 8.94826 23.9233 8.51233 23.4874L3.88027 18.8553C3.18772 19.3376 2.52521 19.89 1.90494 20.5103C1.469 20.9462 0.762213 20.9462 0.326279 20.5103C-0.109655 20.0743 -0.109655 19.3675 0.326279 18.9316C4.11209 15.1458 9.42363 13.4348 14.1486 14.551C13.1953 9.64988 15.0274 4.23046 18.9309 0.326951C19.3669 -0.108984 20.0737 -0.108984 20.5096 0.326951ZM21.7309 15.7506L16.2487 10.2684C16.0133 12.0089 16.1403 13.7425 16.6527 15.3466C18.2569 15.859 19.9905 15.9861 21.7309 15.7506ZM15.0026 17.4198C15.4471 18.7111 15.6173 20.0993 15.527 21.5078L10.4915 16.4724C11.9001 16.382 13.2883 16.5523 14.5795 16.9968L14.8942 17.1051L15.0026 17.4198Z" fill="#4B4B4B"/>
</svg>
